src/assets/images/silpo.svg

<svg width="169" height="67" viewBox="0 0 169 67" fill="none" xmlns="http://www.w3.org/2000/svg">
<path d="M69.5748 1.38804C61.9798 1.57205 56.6795 6.79316 54.1784 9.87523C54.1784 9.87523 54.0637 10.0132 53.9719 10.1282C53.8113 10.0822 53.6736 10.0132 53.6736 10.0132C48.465 8.12719 42.591 7.78219 36.6711 8.97821C30.9807 10.1512 22.7892 13.0953 16.8693 17.8794C6.42918 26.3206 0.922294 36.5098 1.40415 46.538C1.67949 52.3342 4.34115 57.3713 9.11378 61.0514C16.9381 67.1005 29.8564 65.7205 35.065 64.8464C40.8701 63.8574 131.894 47.5041 143.826 45.227C154.702 43.134 165.05 39.4539 167.115 26.5736C167.23 25.8146 167.299 25.0326 167.299 24.2736V24.1585C167.299 21.0075 166.312 18.0634 164.614 16.0624C161.425 12.3593 156.079 11.9223 152.316 11.9223C147.13 11.8993 91.304 12.9803 84.9481 13.0953C84.9481 13.0953 84.7416 13.0953 84.5351 13.0953C84.5122 12.8883 84.4892 12.6813 84.4892 12.6813C84.1451 10.1282 83.1125 7.80519 81.5063 5.96514C79.5789 3.8031 75.9536 1.22704 69.5748 1.38804Z" fill="#F47B20"/>
<path d="M69.5298 0.0084624C61.6825 0.192466 56.1297 5.41358 53.514 8.51865C48.2136 6.72461 42.2937 6.4256 36.3967 7.62163C30.5457 8.81766 22.1247 11.8537 15.9983 16.8218C5.21403 25.539 -0.453472 36.1193 0.0283802 46.6075C0.32667 52.8176 3.17189 58.1997 8.26576 62.1328C16.5261 68.527 29.9032 67.101 35.2724 66.2039C40.9629 65.2379 131.895 48.9075 144.056 46.5845C155.414 44.4224 166.221 40.5124 168.447 26.8041C168.585 25.953 168.654 25.125 168.654 24.297C168.677 20.7779 167.575 17.4428 165.648 15.1888C162.091 11.0487 156.332 10.5657 152.317 10.5657C149.104 10.5657 126.067 10.9567 85.6604 11.7387C85.1785 9.20867 84.1001 6.93162 82.5169 5.11457C80.4059 2.67652 76.4364 -0.175542 69.5298 0.0084624ZM54.5465 10.1517C57.0017 7.11562 62.1873 2.00951 69.5986 1.8255C75.7939 1.6645 79.3045 4.17156 81.1631 6.2876C82.7234 8.05864 83.71 10.2897 84.0313 12.7507L84.123 13.5788L84.9491 13.5558C91.3049 13.4408 147.085 12.3597 152.317 12.3827C155.965 12.3827 161.196 12.8197 164.248 16.3848C165.877 18.2939 166.818 21.1229 166.818 24.159V24.274C166.818 25.033 166.749 25.769 166.634 26.505C164.615 39.0863 154.428 42.7204 143.712 44.7675C131.781 47.0445 40.7564 63.3979 34.9512 64.3869C29.8114 65.2609 17.0538 66.6179 9.36713 60.6838C4.70923 57.0957 2.11641 52.1966 1.84106 46.5155C1.38216 36.6253 6.79726 26.5971 17.1227 18.2479C22.9967 13.5098 31.0964 10.5887 36.718 9.43867C42.569 8.24265 48.3513 8.58765 53.4681 10.4507L54.0876 10.6807L54.5465 10.1517Z" fill="#232E83"/>
<path d="M161.404 25.8844L160.923 24.7804L160.762 24.4124C160.739 24.3894 160.716 24.3434 160.67 24.3434C160.624 24.3204 160.533 24.3204 160.418 24.4124L158.651 25.7464L158.697 25.0104C158.812 23.5154 158.536 20.8243 157.274 19.5823C156.104 18.4322 154.452 17.9032 152.456 18.0412C150.368 18.2022 148.142 18.9843 146.696 20.1803C144.54 21.9513 143.186 25.0794 143.186 25.0794C143.186 25.0794 143.301 24.0904 143.301 23.1933C143.301 21.7213 142.91 20.5483 142.107 19.7433C141.167 18.7312 139.698 18.3172 137.794 18.4552C137.128 18.5012 135.453 19.0763 134.421 20.1113C134.512 19.7893 134.834 18.7542 134.834 18.7542L127.675 19.1223L125.633 20.6863L124.325 26.5744C124.325 26.5744 124.233 26.3444 124.187 26.2524C123.476 24.6884 122.076 23.3083 119.85 23.5154C118.588 23.6304 117.418 23.9984 116.363 24.5964L115.697 24.9874L117.074 19.3753L108.309 19.7203L105.624 22.0663L106.244 19.7663L96.5609 19.8583L96.1249 21.4683L96.102 21.4453L95.7349 20.9393C95.3677 20.4333 94.7023 19.9963 94.2434 19.8123C92.1783 18.9843 88.3235 19.6973 86.4879 21.2613C82.243 24.8494 82.0594 30.8755 81.807 34.4406C81.6235 37.1317 81.3711 38.2127 81.1416 38.4427C81.2104 36.5106 80.1779 34.8776 79.1224 34.1646C77.7228 33.2216 75.7265 33.1986 74.0056 33.7736C70.3344 35.0156 69.6231 37.1087 69.6231 37.1087L75.107 20.9163C75.107 20.9163 72.9272 20.9853 72.0094 21.0313C75.0152 20.2263 76.805 18.2022 76.9656 15.3502V15.2122C76.9656 15.1662 76.9656 15.1202 76.9656 15.0972C76.9656 13.6711 76.3231 12.2221 75.1988 11.2101C74.3498 10.4511 72.4224 9.64605 70.5179 9.62305C69.4854 9.62305 68.1316 9.83005 66.8696 10.1981C65.1946 10.6811 61.9134 12.5211 61.5233 16.0862C61.3398 17.8342 61.5922 19.0073 62.4641 20.1113C62.8312 20.5713 63.6343 21.1003 64.621 21.3073C63.3819 21.3533 62.3953 21.3763 62.3264 21.3763C62.1658 21.5143 60.7432 22.8483 60.6285 22.9403C60.422 23.5844 59.0911 27.9544 58.1504 30.3925C57.3244 32.5546 56.3607 34.6246 55.3052 36.4646C52.2075 41.9158 48.238 45.4118 43.8554 46.5849C40.7119 47.4359 38.4403 47.3669 36.5359 46.4009C34.6085 45.4348 33.2317 42.4908 33.2547 39.4087C33.2776 36.1656 34.7003 31.8875 35.664 30.0015C38.991 23.4464 41.6527 21.7673 44.039 20.8933C46.0123 20.1803 47.389 20.3643 47.6873 20.5483C47.2055 20.8473 46.8154 21.0543 46.8154 21.0543C43.4195 23.0323 41.1479 26.2294 40.8955 29.4495C40.7349 31.4735 41.3315 33.2906 42.5705 34.5786C43.7866 35.8436 45.5993 36.4416 47.6644 36.2346C52.3452 35.7976 56.7278 31.2435 57.0261 26.4824C57.2096 23.7914 56.5213 21.6063 55.0069 19.9503C52.4829 17.1902 49.5 16.2242 44.039 16.3622C39.0369 16.5002 33.4153 18.4322 28.5968 21.6753C24.4896 24.4354 19.0286 29.4955 16.3899 37.8447C14.8296 42.7898 16.0916 49.0919 19.281 52.197C23.5488 56.3371 28.941 57.4181 37.316 55.7621C42.9835 54.635 48.5133 51.438 53.7449 46.1939L54.2038 45.7338L54.2956 46.3779C54.4791 47.5049 54.8692 48.4479 55.4887 49.1839C56.4754 50.403 58.4946 51.714 62.5559 51.162C65.2634 50.794 68.3611 49.3909 72.0094 46.8609L72.1929 46.7459L72.3765 46.8609C73.9597 47.8959 76.1166 48.8389 80.0402 48.0109L80.1091 47.9879C81.5776 47.6889 85.4783 46.8609 88.5759 42.4448C88.9889 41.8468 89.4019 41.1337 89.8379 40.1447L90.3656 38.9717L90.4574 40.2597C90.5951 42.0538 90.8475 43.3418 91.7424 44.2158C92.8437 45.2968 94.4958 45.7338 96.4003 45.4348C100.094 44.8598 102.618 41.7778 104.225 39.5237L104.546 39.0867L104.798 39.5697C106.106 42.0768 109.594 43.2958 113.701 42.6748C117.602 42.0768 119.552 40.2597 121.227 38.2357L121.548 37.8217L120.791 40.9267L130.887 39.3397L132.723 31.7495C132.723 31.7495 132.677 33.7966 132.906 34.9006C133.136 36.0046 133.595 36.9247 134.031 37.3617C135.017 38.3277 136.669 38.5117 137.725 38.3507C139.354 38.0977 141.763 37.3617 143.989 34.0036L144.333 33.4746L144.563 34.0496C145.274 35.7516 147.89 36.8786 150.299 36.4876C153.557 35.9586 156.012 34.0956 157.412 31.1055L157.481 30.9675L157.618 30.9215C159.293 30.3925 160.923 28.6445 161.381 26.8274C161.404 26.6434 161.496 26.2064 161.404 25.8844ZM105.555 22.2733C105.578 22.2043 105.601 22.1353 105.601 22.0663C105.601 22.0893 105.601 22.1583 105.555 22.2733Z" fill="white"/>
<path d="M69.5091 20.042C72.6756 19.904 75.7732 18.478 76.0256 15.1889C76.1862 12.9809 74.5112 10.7038 71.0235 10.4968C69.0961 10.3818 67.3293 10.8418 66.0674 11.8078C65.1036 12.5439 64.4382 13.5329 64.1399 14.7979C63.7958 16.2239 63.9564 17.42 64.6447 18.34C65.5626 19.513 67.3064 20.134 69.5091 20.042Z" fill="#232E83"/>
<path d="M160.325 25.4239C159.866 26.4359 158.925 27.4709 158.099 27.6089L157.732 27.7009C157.732 27.7009 158.076 25.4699 158.076 24.8028C158.145 21.7438 157.434 18.5467 152.661 18.7997C149.747 18.9607 145.479 21.5138 144.814 27.0109V27.0339V27.0569C144.814 27.0799 144.791 27.1259 144.791 27.1719C144.057 29.0809 142.726 31.772 141.785 31.887C141.579 31.91 141.395 31.841 141.257 31.703C141.074 31.542 140.982 31.266 141.005 30.921C141.028 30.323 141.257 29.4259 141.533 28.2529C141.923 26.7119 142.244 25.2629 142.405 23.6528C142.749 19.9037 140.454 19.1677 138.091 19.3517C136.347 19.4897 134.718 20.5247 134.259 21.0538L133.41 22.0198C133.41 22.0198 133.8 20.1797 133.915 19.6737C133.226 19.6967 129.027 19.8347 128.591 19.8577L126.71 27.4709C126.067 28.3449 125.15 29.0579 124.392 29.2649L124.025 29.3569L123.979 28.9659C123.934 28.5749 123.888 28.2069 123.796 27.8159C123.681 26.9649 122.947 24.0438 120.102 24.2738C112.782 24.8948 112.989 33.98 117.371 32.692L117.876 32.531L117.784 33.083C117.211 36.6941 115.65 38.6031 113.562 38.8792C113.241 38.9252 112.943 38.8332 112.713 38.6032C112.346 38.2581 112.14 37.5911 112.163 36.8091C112.209 35.0381 115.719 20.2717 115.719 20.2717C115.719 20.2717 109.386 20.5017 108.927 20.5247C108.606 21.8818 107.206 27.7469 107.183 27.7699L106.977 28.5519C106.702 29.5409 106.518 30.208 106.403 30.898V30.921V30.944C106.38 30.99 106.38 31.036 106.357 31.059C105.302 33.842 103.42 36.8551 101.998 37.0161C101.722 37.0391 101.47 36.9701 101.287 36.7861C101.08 36.6021 100.965 36.3031 100.988 35.9581V35.9351L101.103 34.7161C101.103 34.7161 104.728 21.4908 104.958 20.6167C104.155 20.6397 97.2023 20.7778 97.2023 20.7778L96.5139 23.1928C96.3303 21.2378 92.2002 18.5927 89.1026 21.3988C85.8214 24.3658 84.9265 28.8049 84.4217 33.175C84.4217 33.175 84.3758 33.336 84.3758 33.359C83.6875 38.6261 82.4714 42.2372 78.8001 42.7202C77.9741 42.8352 77.2169 42.7892 76.6891 42.4672C77.9511 41.5012 78.7313 40.7192 79.3278 39.7072C80.6816 37.4531 80.0621 35.4751 78.6624 34.5321C75.8172 32.669 72.7196 34.9461 72.1689 37.8441C71.8247 39.6152 72.4442 41.1102 72.9949 41.9842C72.0083 42.5362 71.2281 43.1573 69.8744 43.3413C69.0713 43.4563 68.2682 43.0422 68.0158 42.6742C67.2127 41.5702 68.2911 38.0511 68.4518 37.5911C68.4518 37.5911 73.4768 22.6178 73.7751 21.6978C72.9031 21.7438 63.6562 22.0428 63.1973 22.0658C62.876 23.0088 61.7058 26.6659 60.5127 30.047C58.1493 36.6481 51.2657 45.6873 44.1985 47.5043C40.4355 48.4934 37.4985 48.3094 35.617 47.1593C33.07 45.5953 31.6245 41.8232 32.6111 36.5561C33.2995 32.83 33.919 31.45 34.9057 29.3339C40.8256 16.7067 50.3479 19.5587 49.7513 20.5247C48.7876 20.8468 47.9386 21.3528 47.9386 21.3528C46.4242 22.1578 43.9691 24.5498 43.8773 27.5169C43.8085 29.4259 44.3362 30.967 45.3687 31.979C46.3783 32.968 47.8698 33.428 49.5448 33.267C53.3078 32.922 56.3596 30.093 56.4972 25.8839C56.5661 23.6068 55.9465 21.7438 54.6157 20.3637C52.5047 18.1557 50.0266 17.0517 44.5198 17.2127C36.03 17.4427 23.0659 23.5608 19.3487 37.0851C18.0867 41.6622 19.7388 47.1593 22.4693 49.6664C26.2553 53.1395 30.9591 54.4275 39.1964 52.8635C46.5389 51.4834 52.5506 46.4693 56.9791 41.2022C56.9791 41.2942 56.9791 41.3632 56.9561 41.4552C55.9236 45.3193 57.3462 49.4364 63.7709 48.6084C66.4555 48.2634 71.1822 46.7223 74.4864 44.1463C76.0008 45.4803 78.6165 46.2393 81.5994 45.8023C82.8155 45.6183 85.959 44.7903 88.6895 40.8342C90.8693 37.7061 91.9478 31.634 92.5444 28.3449C92.8197 26.8269 93.0033 25.8149 93.2327 25.3779C93.4392 24.9868 93.6228 24.5038 94.1964 24.2508C95.3437 23.7678 95.9403 24.8948 95.7108 25.7229C95.4814 26.5509 94.2882 30.76 94.2882 30.76L94.0587 31.427C93.3474 33.474 92.5673 35.7971 92.4985 38.2351C92.4526 40.0292 92.9115 41.4552 93.8522 42.3292C94.7242 43.1342 95.9632 43.4563 97.4317 43.2492C101.47 42.6512 104.361 38.5571 105.715 36.1421L105.899 35.7971L106.174 35.3141L106.335 36.2111C106.977 39.7992 109.799 41.2252 114.021 40.6042C119.505 39.7992 122.809 36.9471 123.819 31.979L123.865 31.772L124.048 31.703C124.553 31.519 125.058 31.243 125.563 30.921L125.976 30.645L124.025 38.5801C124.806 38.4651 129.945 37.5911 130.358 37.5451C130.473 37.0621 132.722 27.4249 132.722 27.4249C133.112 25.7459 134.19 22.5718 135.429 22.5028C135.659 22.4798 135.888 22.5718 136.072 22.7788C136.347 23.0548 136.485 23.5148 136.485 24.0438C136.462 25.1019 136.14 26.2749 135.75 27.6319C135.292 29.2649 134.81 31.289 134.626 33.267C134.328 36.6251 137.127 36.6021 137.976 36.4641C139.972 36.1651 142.611 35.1301 144.86 30.162L144.974 30.691C145.548 33.451 148.003 35.0841 150.573 34.6701C153.74 34.1871 155.896 32.462 157.09 29.61L157.181 29.4259L157.365 29.4029C158.604 29.2649 160.325 27.8159 160.761 26.1369C160.577 26.0679 160.554 25.7229 160.325 25.4239ZM76.3679 36.0041C77.4922 36.0501 77.9511 36.7631 77.3316 38.1431C77.0104 38.8332 76.1384 39.8682 74.9682 40.7422C73.5227 38.4881 74.9223 35.9351 76.3679 36.0041ZM118.45 29.978C118.243 30.277 117.784 30.484 117.05 30.599C116.293 30.737 116.109 30.323 116.086 30.139C115.926 29.4719 116.637 28.4139 117.279 28.1149C117.647 27.9539 118.06 28.0229 118.174 28.1609C118.702 28.7819 118.45 29.978 118.45 29.978ZM153.35 29.656C152.891 31.036 152.271 32.508 151.055 32.669C150.642 32.715 150.298 32.623 150.022 32.393C149.609 32.025 149.426 31.68 149.472 30.415C149.541 27.4709 151.078 20.1337 153.143 20.0417C153.418 20.0187 153.694 20.1337 153.9 20.3637C154.336 20.8468 154.52 21.7668 154.382 22.8708L154.359 23.0088C154.359 23.0088 152.179 23.1008 151.95 26.3439C151.812 28.2989 153.441 29.2189 153.441 29.2189L153.35 29.656ZM153.923 27.4939C153.212 27.0569 153.258 25.7689 153.625 25.2859C153.808 25.0328 154.107 25.0098 154.267 25.1018C154.244 25.9069 154.198 26.5969 153.923 27.4939Z" fill="#232E83"/>
</svg>

<svg width="169" height="67" fill="none" xmlns="http://www.w3.org/2000/svg"><path d="M69.575 1.388c-7.595.184-12.896 5.405-15.397 8.487 0 0-.114.138-.206.253-.16-.046-.298-.115-.298-.115-5.209-1.886-11.083-2.23-17.003-1.035-5.69 1.173-13.882 4.117-19.802 8.901C6.43 26.321.922 36.51 1.404 46.538c.275 5.796 2.937 10.833 7.71 14.513 7.824 6.05 20.742 4.67 25.951 3.795 5.805-.989 96.829-17.342 108.761-19.619 10.876-2.093 21.224-5.773 23.289-18.653.115-.76.184-1.541.184-2.3v-.116c0-3.15-.987-6.095-2.685-8.096-3.189-3.703-8.535-4.14-12.298-4.14-5.186-.023-61.012 1.058-67.368 1.173h-.413l-.046-.414c-.344-2.553-1.377-4.876-2.983-6.716-1.927-2.162-5.552-4.738-11.931-4.577z" fill="#F47B20"/><path d="M69.53.008c-7.848.184-13.4 5.406-16.016 8.51-5.3-1.793-11.22-2.092-17.117-.896-5.851 1.196-14.272 4.232-20.399 9.2C5.214 25.539-.453 36.119.028 46.608c.299 6.21 3.144 11.592 8.238 15.525 8.26 6.394 21.637 4.968 27.006 4.07 5.69-.965 96.623-17.296 108.784-19.619 11.358-2.162 22.165-6.072 24.391-19.78.138-.851.207-1.679.207-2.507.023-3.52-1.079-6.854-3.006-9.108-3.557-4.14-9.316-4.623-13.331-4.623-3.213 0-26.25.39-66.657 1.173-.481-2.53-1.56-4.807-3.143-6.624-2.111-2.438-6.08-5.29-12.987-5.107zM54.547 10.152c2.455-3.036 7.64-8.142 15.052-8.326 6.195-.161 9.706 2.346 11.564 4.462 1.56 1.77 2.547 4.002 2.868 6.463l.092.828.826-.023c6.356-.115 62.136-1.196 67.368-1.173 3.648 0 8.879.437 11.931 4.002 1.629 1.909 2.57 4.738 2.57 7.774v.115c0 .759-.069 1.495-.184 2.231-2.019 12.581-12.206 16.215-22.922 18.262-11.931 2.277-102.956 18.63-108.76 19.62-5.14.874-17.898 2.23-25.585-3.703-4.658-3.588-7.25-8.487-7.526-14.168-.459-9.89 4.956-19.919 15.282-28.268 5.874-4.738 13.973-7.66 19.595-8.81 5.851-1.195 11.633-.85 16.75 1.013l.62.23.459-.53z" fill="#232E83"/><path d="M161.404 25.884l-.481-1.104-.161-.368c-.023-.023-.046-.069-.092-.069-.046-.023-.137-.023-.252.07l-1.767 1.333.046-.736c.115-1.495-.161-4.186-1.423-5.428-1.17-1.15-2.822-1.679-4.818-1.54-2.088.16-4.314.942-5.76 2.138-2.156 1.771-3.51 4.9-3.51 4.9s.115-.99.115-1.887c0-1.472-.391-2.645-1.194-3.45-.94-1.012-2.409-1.426-4.313-1.288-.666.046-2.341.621-3.373 1.656a97.13 97.13 0 01.413-1.357l-7.159.368-2.042 1.564-1.308 5.888s-.092-.23-.138-.322c-.711-1.564-2.111-2.944-4.337-2.737a8.597 8.597 0 00-3.487 1.081l-.666.391 1.377-5.612-8.765.345-2.685 2.346.62-2.3-9.683.092-.436 1.61-.023-.023-.367-.506c-.367-.506-1.033-.943-1.492-1.127-2.065-.828-5.92-.115-7.755 1.45-4.245 3.587-4.429 9.613-4.681 13.179-.183 2.69-.436 3.772-.665 4.002.068-1.932-.964-3.565-2.02-4.278-1.4-.943-3.395-.966-5.116-.391-3.672 1.242-4.383 3.335-4.383 3.335l5.484-16.193s-2.18.07-3.098.115c3.006-.805 4.796-2.829 4.957-5.68v-.139-.115c0-1.426-.643-2.875-1.767-3.887-.85-.759-2.777-1.564-4.681-1.587-1.033 0-2.386.207-3.648.575-1.675.483-4.957 2.323-5.347 5.888-.183 1.748.07 2.921.941 4.025.367.46 1.17.99 2.157 1.196-1.24.046-2.226.07-2.295.07-.16.137-1.583 1.471-1.697 1.563-.207.644-1.538 5.014-2.479 7.452-.826 2.163-1.79 4.233-2.845 6.073-3.097 5.45-7.067 8.947-11.45 10.12-3.143.85-5.415.782-7.32-.184-1.926-.966-3.303-3.91-3.28-6.992.023-3.243 1.445-7.521 2.409-9.407 3.327-6.556 5.989-8.235 8.375-9.109 1.973-.713 3.35-.529 3.648-.345-.481.3-.872.506-.872.506-3.395 1.978-5.667 5.175-5.92 8.396-.16 2.024.436 3.84 1.675 5.129 1.217 1.265 3.03 1.863 5.094 1.656 4.681-.437 9.064-4.991 9.362-9.753.184-2.69-.505-4.876-2.02-6.532-2.523-2.76-5.506-3.726-10.967-3.588-5.002.138-10.624 2.07-15.442 5.313-4.107 2.76-9.568 7.82-12.207 16.17-1.56 4.945-.298 11.247 2.891 14.352 4.268 4.14 9.66 5.221 18.035 3.565 5.667-1.127 11.197-4.324 16.429-9.568l.459-.46.092.644c.183 1.127.573 2.07 1.193 2.806.986 1.219 3.006 2.53 7.067 1.978 2.707-.368 5.805-1.771 9.453-4.301l.184-.115.183.115c1.584 1.035 3.74 1.978 7.664 1.15l.07-.023c1.468-.3 5.368-1.127 8.466-5.543.413-.598.826-1.311 1.262-2.3l.528-1.173.091 1.288c.138 1.794.39 3.082 1.285 3.956 1.102 1.08 2.754 1.518 4.658 1.219 3.694-.575 6.218-3.657 7.825-5.911l.321-.437.252.483c1.308 2.507 4.796 3.726 8.903 3.105 3.901-.598 5.851-2.415 7.526-4.44l.321-.413-.757 3.105 10.096-1.587 1.836-7.59s-.046 2.047.183 3.15c.23 1.105.689 2.025 1.125 2.462.986.966 2.638 1.15 3.694.989 1.629-.253 4.038-.99 6.264-4.347l.344-.53.23.576c.711 1.702 3.327 2.829 5.736 2.438 3.258-.53 5.713-2.392 7.113-5.383l.069-.137.137-.046c1.675-.53 3.305-2.277 3.763-4.095.023-.184.115-.62.023-.943zm-55.849-3.61a.672.672 0 00.046-.208c0 .023 0 .092-.046.207z" fill="#fff"/><path d="M69.51 20.042c3.166-.138 6.263-1.564 6.516-4.853.16-2.208-1.515-4.485-5.002-4.692-1.928-.115-3.695.345-4.957 1.31-.963.737-1.629 1.726-1.927 2.99-.344 1.427-.184 2.623.505 3.543.918 1.173 2.661 1.794 4.864 1.702z" fill="#232E83"/><path d="M160.325 25.424c-.459 1.012-1.4 2.047-2.226 2.185l-.367.092s.344-2.231.344-2.898c.069-3.06-.642-6.256-5.415-6.003-2.914.16-7.182 2.714-7.847 8.21v.047c0 .023-.023.069-.023.115-.734 1.909-2.065 4.6-3.006 4.715a.63.63 0 01-.528-.184c-.183-.161-.275-.437-.252-.782.023-.598.252-1.495.528-2.668.39-1.541.711-2.99.872-4.6.344-3.75-1.951-4.485-4.314-4.301-1.744.138-3.373 1.173-3.832 1.702l-.849.966s.39-1.84.505-2.346c-.689.023-4.888.16-5.324.184l-1.881 7.613c-.643.874-1.56 1.587-2.318 1.794l-.367.092-.046-.391a9.746 9.746 0 00-.183-1.15c-.115-.851-.849-3.772-3.694-3.542-7.32.62-7.113 9.706-2.731 8.418l.505-.161-.092.552c-.573 3.611-2.134 5.52-4.222 5.796a.969.969 0 01-.849-.276c-.367-.345-.573-1.012-.55-1.794.046-1.77 3.556-16.537 3.556-16.537s-6.333.23-6.792.253c-.321 1.357-1.721 7.222-1.744 7.245l-.206.782c-.275.989-.459 1.656-.574 2.346v.046c-.023.046-.023.092-.046.115-1.055 2.783-2.937 5.796-4.359 5.957-.276.023-.528-.046-.711-.23-.207-.184-.322-.483-.299-.828v-.023l.115-1.219s3.625-13.225 3.855-14.1c-.803.024-7.756.162-7.756.162l-.688 2.415c-.184-1.955-4.314-4.6-7.411-1.794-3.282 2.967-4.176 7.406-4.681 11.776 0 0-.046.161-.046.184-.689 5.267-1.905 8.878-5.576 9.361-.826.115-1.583.07-2.11-.253 1.261-.966 2.041-1.748 2.638-2.76 1.354-2.254.734-4.232-.666-5.175-2.845-1.863-5.942.414-6.493 3.312-.344 1.771.275 3.266.826 4.14-.987.552-1.767 1.173-3.12 1.357-.804.115-1.607-.299-1.86-.667-.802-1.104.276-4.623.437-5.083 0 0 5.025-14.973 5.323-15.893-.872.046-10.119.345-10.578.368-.321.943-1.491 4.6-2.684 7.981-2.364 6.601-9.247 15.64-16.314 17.457-3.764.99-6.7.805-8.582-.345-2.547-1.564-3.992-5.336-3.006-10.603.689-3.726 1.308-5.106 2.295-7.222 5.92-12.627 15.442-9.775 14.845-8.81-.963.323-1.812.829-1.812.829-1.515.805-3.97 3.197-4.062 6.164-.069 1.909.46 3.45 1.492 4.462 1.01.989 2.5 1.449 4.176 1.288 3.763-.345 6.815-3.174 6.952-7.383.07-2.277-.55-4.14-1.881-5.52-2.111-2.208-4.59-3.312-10.096-3.151-8.49.23-21.454 6.348-25.171 19.872-1.262 4.577.39 10.074 3.12 12.581 3.786 3.474 8.49 4.762 16.727 3.198 7.343-1.38 13.355-6.395 17.783-11.662 0 .092 0 .161-.023.253-1.032 3.864.39 7.981 6.815 7.153 2.684-.345 7.411-1.886 10.715-4.462 1.515 1.334 4.13 2.093 7.113 1.656 1.216-.184 4.36-1.012 7.09-4.968 2.18-3.128 3.259-9.2 3.855-12.49.276-1.517.46-2.53.689-2.966.206-.391.39-.874.963-1.127 1.148-.483 1.744.644 1.515 1.472-.23.828-1.423 5.037-1.423 5.037l-.23.667c-.71 2.047-1.49 4.37-1.56 6.808-.045 1.794.413 3.22 1.354 4.094.872.805 2.111 1.127 3.58.92 4.038-.598 6.929-4.692 8.283-7.107l.184-.345.275-.483.161.897c.642 3.588 3.464 5.014 7.686 4.393 5.484-.805 8.788-3.657 9.798-8.625l.046-.207.183-.069c.505-.184 1.01-.46 1.515-.782l.413-.276-1.951 7.935c.781-.115 5.92-.989 6.333-1.035.115-.483 2.364-10.12 2.364-10.12.39-1.68 1.468-4.853 2.707-4.922.23-.023.459.069.643.276.275.276.413.736.413 1.265-.023 1.058-.345 2.23-.735 3.588-.458 1.633-.94 3.657-1.124 5.635-.298 3.358 2.501 3.335 3.35 3.197 1.996-.299 4.635-1.334 6.884-6.302l.114.529c.574 2.76 3.029 4.393 5.599 3.98 3.167-.484 5.323-2.209 6.517-5.061l.091-.184.184-.023c1.239-.138 2.96-1.587 3.396-3.266-.184-.07-.207-.414-.436-.713zm-83.957 10.58c1.124.046 1.583.76.964 2.14-.322.69-1.194 1.724-2.364 2.598-1.445-2.254-.046-4.807 1.4-4.738zm42.082-6.026c-.207.299-.666.506-1.4.621-.757.138-.941-.276-.964-.46-.16-.667.551-1.725 1.193-2.024.368-.161.781-.092.895.046.528.62.276 1.817.276 1.817zm34.9-.322c-.459 1.38-1.079 2.852-2.295 3.013-.413.046-.757-.046-1.033-.276-.413-.368-.596-.713-.55-1.978.069-2.944 1.606-10.281 3.671-10.373a.916.916 0 01.757.322c.436.483.62 1.403.482 2.507l-.023.138s-2.18.092-2.409 3.335c-.138 1.955 1.491 2.875 1.491 2.875l-.091.437zm.573-2.162c-.711-.437-.665-1.725-.298-2.208.183-.253.482-.276.642-.184-.023.805-.069 1.495-.344 2.392z" fill="#232E83"/></svg>
